X:1
T: Balletarach Strathspey
C:Alexander Walker
R:Strathspey
Q:128
K:Eb
M:4/4
L:1/16
|:B,2|E3G F3G EB,3 B,3C|E3G C3E F4-F3d|e3B cdec BG3 E3G|C3F EDCB, E4-E2B,2|
E3G F3G EB,3 B,3C|E3G C3E F4-F3d|e3B cdec BG3 E3G|C3F EDCB, E4-E2B2|
e3B G3B E3B G3B|e3B g3B df3 f3g|e3B G3B E3B G3B|C3F EDCB, E4-E3B|
e3B G3B E3B G3B|e3B g3B df3 f3d|B3G A3F G3E F3D|E3C B,A3 G2E2E2:|
